lib/illus/products/sanx.svg

<svg width="24" height="25" viewBox="0 0 24 25" fill="none" xmlns="http://www.w3.org/2000/svg">
<path fill-rule="evenodd" clip-rule="evenodd" d="M5.91548 5.83997L4.00665 2.01882C3.86812 1.7423 3.99091 1.37468 4.26707 1.23647C6.78012 -0.0197297 8.14328 0.587263 9.46215 1.17731C10.7834 1.76735 12.0328 2.32187 14.7986 1.21714C15.2855 1.02108 15.7709 1.55014 15.5359 2.01882L13.6269 5.83997H5.91548ZM6.53376 4.83997L5.09177 1.95334C6.02061 1.54496 6.6969 1.46661 7.22918 1.51108C7.97975 1.57377 8.66686 1.86931 9.35702 2.16616C10.0459 2.46245 10.7378 2.76004 11.4988 2.82872C12.2813 2.89933 13.1483 2.80908 14.1799 2.49565L13.0087 4.83997H6.53376ZM2.09378 15.3626C2.81678 13.0701 4.18553 10.5209 6.12439 8.00604H13.4293C15.2026 10.2632 16.5374 12.4803 17.3916 14.5H12.25C11.836 14.5 11.5 14.7987 11.5 15.1667V17.5H10.25C9.83599 17.5 9.5 17.7987 9.5 18.1667V20.8333C9.5 21.2013 9.83599 21.5 10.25 21.5H11.5V23.5H6.27543C4.5144 23.5 2.7408 22.891 1.96361 21.2011C1.32362 19.8079 1.32721 17.7934 2.09378 15.3626ZM6.27543 24.5C3.05537 24.5 1.65924 22.933 1.05489 21.6186C-0.517566 18.1952 1.32705 12.4282 5.63732 7.00604H13.9116C15.9906 9.58714 17.5393 12.1578 18.4727 14.5H22.75C23.164 14.5 23.5 14.7987 23.5 15.1667V17.8333C23.5 18.2013 23.164 18.5 22.75 18.5H21.5V20.5H22.75C23.164 20.5 23.5 20.7987 23.5 21.1667V23.8333C23.5 24.2013 23.164 24.5 22.75 24.5C17.2585 24.5 11.767 24.5 6.27543 24.5ZM22.5 17.5V15.5H20V17.5H22.5ZM17 18.5V20.5H10.5V18.5H17ZM20.5 20.5H18V18.5H20.5V20.5ZM12.5 23.5V21.5H20V23.5H12.5ZM12.5 17.5V15.5H19V17.5H12.5ZM22.5 21.5V23.5H21V21.5H22.5Z" fill="var(--product-color-3, #7A859E)"/>
</svg>

<svg width="24" height="25" fill="none" xmlns="http://www.w3.org/2000/svg"><path fill-rule="evenodd" clip-rule="evenodd" d="M5.915 5.84 4.007 2.019a.6.6 0 0 1 .26-.783C6.78-.02 8.143.587 9.462 1.177c1.321.59 2.57 1.145 5.337.04.487-.196.972.333.737.802l-1.91 3.821h-7.71Zm.619-1L5.092 1.953c.929-.408 1.605-.486 2.137-.442.75.063 1.438.358 2.128.655.689.296 1.38.594 2.142.663.782.07 1.65-.02 2.68-.333L13.01 4.84H6.534Zm-4.44 10.523c.723-2.293 2.092-4.842 4.03-7.357h7.305c1.774 2.257 3.108 4.474 3.963 6.494H12.25c-.414 0-.75.299-.75.667V17.5h-1.25c-.414 0-.75.299-.75.667v2.666c0 .368.336.667.75.667h1.25v2H6.275c-1.76 0-3.534-.609-4.311-2.299-.64-1.393-.637-3.408.13-5.838ZM6.275 24.5c-3.22 0-4.616-1.567-5.22-2.881-1.573-3.424.272-9.19 4.582-14.613h8.275c2.079 2.581 3.627 5.152 4.56 7.494h4.278c.414 0 .75.299.75.667v2.666c0 .368-.336.667-.75.667H21.5v2h1.25c.414 0 .75.299.75.667v2.666c0 .368-.336.667-.75.667H6.275Zm16.225-7v-2H20v2h2.5Zm-5.5 1v2h-6.5v-2H17Zm3.5 2H18v-2h2.5v2Zm-8 3v-2H20v2h-7.5Zm0-6v-2H19v2h-6.5Zm10 4v2H21v-2h1.5Z" fill="var(--product-color-3, #7A859E)"/></svg>
